X: 1
T:The Flag of Freedom
M:C
L:1/8
Q:80
C:arr. Sean Courtney, PM Cork, 1918
S:Air
K:HP
{g}A3B/2A/2{g}G2{d}A2|
{Gdc}d3e{g}f3g|
{ag}a2{g}a2{gf}gf{gef}ed|  !
{gde}d2ed{gBd}B2-B2|
{g}A3B/2A/2{g}G2{d}A2|
{Gdc}d3e{g}f3g|  !
{ag}a2{AGAG}A2{gf}ge{gcd}c{e}A|
{Gdc}d3e{g}d2-d2|
{g}f3g{ag}a2{Bd}B2|  !
{gf}g2f2{gef}e3d|
{gcd}c3d{gef}e2d2|
{gcd}c2e2{gAGAG}A2-A2|  !
{g}A3B/2A/2{g}G2{d}A2|
{Gdc}d3e{g}f3g|
{ag}a2{AGAG}A2{gf}ge{gcd}c{e}A|  !
{Gdc}d3e{g}d2-d2|]
